client/resources/iconsets/breeze/src/svg/large/icon_large_calendar_view_week.svg

<svg xmlns="http://www.w3.org/2000/svg" width="32" height="32" viewBox="0 0 32 32">
 <path style="fill:#6d6d70"
       d="M 7.5 4 C 7.223 4 7 4.223 7 4.5 L 7 5 L 5 5 L 4 5 C 3.4459997 5 3 5.446 3 6 L 3 28 C 3 28.554 3.4459997 29 4 29 L 28 29 C 28.554 29 29 28.554 29 28 L 29 6 C 29 5.446 28.553999 5 28 5 L 27 5 L 25 5 L 25 4.5 C 25 4.223 24.777 4 24.5 4 L 21.5 4 C 21.223 4 21 4.223 21 4.5 L 21 5 L 11 5 L 11 4.5 C 11 4.223 10.777 4 10.5 4 L 7.5 4 z M 5 8 L 27 8 L 27 26.730469 L 5 26.730469 L 5 8 z M 11 11 L 11 13.3125 L 17.873047 13.3125 L 12.640625 24 L 15.728516 24 L 21 12.724609 L 21 11 L 11 11 z "
       />
</svg>

<svg xmlns="http://www.w3.org/2000/svg" width="32" height="32"><path d="M7.5 4a.5.5 0 0 0-.5.5V5H5 4a1 1 0 0 0-1 1v22a1 1 0 0 0 1 1h24a1 1 0 0 0 1-1V6a1 1 0 0 0-1-1h-1-2v-.5a.5.5 0 0 0-.5-.5h-3a.5.5 0 0 0-.5.5V5H11v-.5a.5.5 0 0 0-.5-.5h-3zM5 8h22v18.73H5V8zm6 3v2.313h6.873L12.641 24h3.088L21 12.725V11H11z" fill="#6d6d70"/></svg>
